!!!COM: Music21
!!!OTL: Pernas pra Arriba
!!!OMV: pezas_pasodobles_pernas-pra-arriba_pernas-pra-arriba-partitura.musicxml
**kern
*I"Bagpipes
*I'Bag
*clefG^2
*k[]
*M2/4
=1
!LO:TX:a:t=Allegro
*MM132
!LO:TX:a:t=[quarter]=132
8r
8gg
8ccL
8ggJ
=
4ccc
[4bb-X
=
8bb-L]
8aaJ
8ggL
8ggJ
=
4aa
[4gg
=
8ggL]
8eeJ
8ccL
8eeJ
=
4gg
[4ff
=
8ffL]
8ddJ
8bL
8ddJ
=
4cc
[4cc
=
8ccL]
8ggJ
8ccL
8ggJ
=
4ccc
[4bb-X
=
8bb-L]
8aaJ
8ggL
8ggJ
!!linebreak:original
=
4aa
[4gg
!!linebreak:original
=
8ggL]
8eeJ
8ccL
8eeJ
=
4gg
[4ff
=
8ffL]
8ddJ
8bL
8ddJ
=
4cc
4cc
=||
*M2/4
!LO:TX:a:t=Allegro
*MM132
!LO:TX:a:t=[quarter]=132
8r
8gg
8ccL
8ggJ
=
4ccc
[4bb-X
=
8bb-L]
8aaJ
8ggL
8ggJ
=
4aa
[4gg
=
8ggL]
8eeJ
8ccL
8eeJ
=
4gg
[4ff
=
8ffL]
8ddJ
8bL
8ddJ
!!linebreak:original
=
4cc
[4cc
=
8ccL]
8ggJ
8ccL
8ggJ
=
4ccc
[4bb-X
=
8bb-L]
8aaJ
8ggL
8ggJ
=
4aa
[4gg
!!linebreak:original
=
8ggL]
8eeJ
8ccL
8eeJ
=
4gg
[4ff
=
8ffL]
8ddJ
8bL
8ddJ
=
4cc
4cc
=||
4cc
4dd
=
8eeL
8eeJ
8eeL
8eeJ
=
8ffL
8eeJ
8ddL
8eeJ
=
8ffL
8ffJ
8ffL
8ffJ
=
4ee
8eeL
8ddJ
=
4.cc
8ee
=
8eeL
8eeJ
8eeL
8eeJ
!!linebreak:original
=
4dd
8ddL
8ccJ
!!linebreak:original
=
4.b
8ff
=
8ffL
8ffJ
8ffL
8ffJ
=
4ee
8eeL
8ddJ
=
2cc
=||
4cc
4dd
=
8eeL
8eeJ
8eeL
8eeJ
=
8ffL
8eeJ
8ddL
8eeJ
=
8ffL
8ffJ
8ffL
8ffJ
=
4ee
8eeL
8ddJ
=
4.cc
8ee
=
8eeL
8eeJ
8eeL
8eeJ
=
4dd
8ddL
8ccJ
!!linebreak:original
=
4.b
8ff
=
8ffL
8ffJ
8ffL
8ffJ
=
4ee
8eeL
8ddJ
=
2cc
=||
*-
